X:1
T:Decantabat populus
T:Costanzo Porta
T:Decantabat populus
C:Costanzo Porta
%%score [ 1 2 3 4 ]
L:1/8
Q:1/4=216
M:2/2
K:F
V:1 alto1 nm="Cantus" snm="C"
V:2 alto nm="Altus" snm="A"
V:3 tenor nm="Tenor" snm="T"
V:4 bass nm="Bassus" snm="B"
V:1
 x8 | x8 |[M:4/2][K:treble] G16 | G8 B8- | B8 F8- | F8 z8 | z4 A6 A2 A4 | c4 A4 G4 F4- | F4 E4 F8 | %9
w: ||De-|can- ta-|* bat|_|po- pu- lus|Is- ra- el, De-|* can- ta-|
 D4 A6 G2 F4- | F4 E4 F8- | F8 A8 | A8 c8- | c8 G8 | z4 A6 A2 A4 | c4 A4 G8 | z8 A8 | A8 A4 c4- | %18
w: bat po- * *|* pu- lus,|_ De-|can- ta-|* bat|po- pu- lus|Is- ra- el|et|u- ni- ver-|
 c2 B2 A2 G2 A4 F4 | B12 G4 | F4 G4 B8 | A16- | A8 z8 | z8 z4 G4 | A8 B4 A4- | A4 G8 F4 | G8 z8 | %27
w: * * * * * sa|mul- ti-|tu- do Ia-|cob|_|ca-|ne- bat le-|* gi- ti-|me,|
 F8 G8 | A8 D4 G4- | G4 F4 G4 D4 | G8 F8 | z8 B8 | A4 B6 A2 A4- | A4 G4 A8 | z16 | z16 | %36
w: ca- ne-|bat le- gi-|* ti- me et|Da- vid|cum|can- to- * *|* ri- bus|||
 F6 F2 D4 F4- | F4 E2 D2 E4 F4- | F4 E2 D2 C2 D2 E2 F2 | G4 G4 A8 | D16 | z8 D8 | E16 | F8 G6 G2 | %44
w: ci- tha- ram per-|* * * * cu-||* ti- e-|bat|in|do-|mo Do- mi-|
 F8 z4 A4 | F6 G2 A2 B2 c4 | F8 B8 | A4 A4 B2 c2 d2 B2 | c8 A4 A4 | F6 G2 A2 B2 c4 | F8 B6 B2 | %51
w: ni, et|lau- * * * *|des De-|o ca- ne- * * *|* bat, et|lau- * * * *|des De- o|
 A4 G8 ^F4 | !fermata!G16 ||"^Secunda pars" z16 | z16 | z16 | z16 | z8 G8 | G4 G4 B6 A2 | %59
w: ca- ne- *|bat.|||||San-|cti- fi- ca- *|
 G2 F2 G6 A2 B2 G2 | A6 A2 A4 B4- | B4 A4 z4 B4- | B4 B4 c8 | d4 d8 c4 | B2 A2 G2 F2 G8 | A8 z8 | %66
w: |* ti sunt er-|* go sa-|* cer- do-|tes et le-|vi- * * * *|tae|
 z16 | z8 G8 | A12 A4 | B6 A2 G4 F4 | G8 E8 | F6 E2 D8 | z4 F4 G8 | A8 F4 D4- | D4 E4 F4 E4 | %75
w: |et|u- ni-|ver- * * sus|Is- ra-|el _ _|de- du-|ce- bat, de-|* du- ce- bat|
 F8 D8 | A6 A2 D8 | G12 G4 | A8 z8 | z4 G8 F4 | G4 A4 F4 G4- | G4 F4 E8 | z4 G4 A2 G2 A2 B2 | %83
w: ar- cam|foe- de- ris|do- mi-|ni,|ar- cam|foe- de- ris do-|* mi- ni|in ju- * * *|
 c4 c4 A8 | z4 A4 G2 F2 G2 A2 | B4 B4 A8 | z8 D8 | G8 F8 | z8 B8 | A4 B6 A2 A4- | A4 G4 A8 | z16 | %92
w: * bi- lo,|in ju- * * *|* bi- lo.|Et|Da- vid|cum|can- to- * *|* ri- bus||
 z16 | F6 F2 D4 F4- | F4 E2 D2 E4 F4- | F4 E2 D2 C2 D2 E2 F2 | G4 G4 A8 | D16 | z8 D8 | E16 | %100
w: |ci- tha- ram per-|* * * * cu-||* ti- e-|bat|in|do-|
 F8 G6 G2 | F16 | z4 A4 F6 G2 | A2 B2 c4 A8 | z8 z4 A4 | F6 G2 A2 B2 c4 | F8 B8 | %107
w: mo Do- mi-|ni,|et lau- *|* * * des,|et|lau- * * * *|des De-|
 A4 A4 B2 c2 d2 B2 | c8 A4 A4 | F6 G2 A2 B2 c4 | F8 B6 B2 | A4 G8 ^F4 | !fermata!G16 |] %113
w: o ca- ne- * * *|* bat, et|lau- * * * *|des De- o|ca- ne- *|bat.|
V:2
 x8 | x8 |[M:4/2][K:treble-8] z16 | z16 | d16 | d8 f8- | f8 c8- | c8 z8 | z8 A8- | A8 A8 | %10
w: ||||De-|can- ta-|* bat,|_|De-|* can-|
 c8 A4 d4- | d2 d2 d4 f4 d4 | c4 f8 e4 | f4 c8 c4 | A6 B2 c8 | z8 z4 e4 | e4 e4 f8- | f4 d4 c4 A4 | %18
w: ta- bat po-|* pu- lus Is- ra-|el, po- pu-|lus Is- ra-|el _ _|et|u- ni- ver-|* sa mul- ti-|
 F6 E2 F2 G2 A4 | G8 z8 | z4 d4 d4 d4 | f6 e2 d2 c2 d4 | c4 d6 B2 c4 | d4 f6 ed e4 | f16 | z16 | %26
w: tu- * * * *|do,|et u- ni-|ver- * * * *|sa mul- ti- tu-|do Ia- * * *|cob||
 c12 d4- | d2 e2 f4 e4 d4 | c12 B4 | A8 z4 G4 | d12 d4 | f8 d4 f4- | f4 e2 d2 e4 f4 | d8 z8 | %34
w: ca- ne-|* * * bat le-|gi- ti-|me et|Da- vid|cum can- to-|* * * * ri-|bus|
 f6 f2 d4 f4- | f4 e2 d2 c4 d4- | d4 d4 B8 | A8 z8 | z16 | z4 d4 c4 c4 | B8 A8 | z4 A4 B4 A4 | %42
w: ci- tha- ram per-|* * * * cu-|* ti- e-|bat,||per- cu- ti-|e- bat|in do- mo|
 c12 c4 | d16 | z8 A8 | d8 c8 | z4 d4 d4 d4 | f6 e2 d2 c2 B4- | B4 A4 z4 A4 | d8 c8 | z8 d8 | %51
w: Do- mi-|ni,|et|lau- des|De- o ca-|ne- * * * *|* bat, et|lau- des|De-|
 f4 d4 d8 | d16 || z16 | d8 d4 d4 | f6 e2 d2 c2 d4 | A4 d4 c8 | F4 f8 e4 | d16- | d8 d8 | z8 f8- | %61
w: o ca- ne-|bat.||San- cti- fi-|ca- * * * *|ti sunt er-|go sa- cer-|do-|* tes|et|
 f4 f4 d8 | d8 z8 | f12 f4 | d8 d4 _e4 | d4 c6 BA G4 | A4 c4 d4 B2 c2 | d2 e2 f8 e4 | f8 z8 | d16 | %70
w: _ le- vi-|tae,|sa- cer-|do- tes et|le- vi- * * *|tae, et le- vi- *||tae|et|
 B8 c8 | A8 B4 B4- | B4 A4 c8- | c8 z8 | B8 c8 | d8 B4 B4 | c4 d8 c2 B2 | e8 d8 | z4 d8 _e4 | %79
w: u- ni-|ver- sus Is-|* ra- el|_|de- du-|ce- bat, de-|du- ce- * *|* bat|ar- cam|
 d12 A4 | c8 d6 d2 | A8 z4 c4 | d2 c2 d2 e2 f4 d4 | e4 e4 f6 ed | c4 d4 e8 | z4 d4 f8 | d8 z4 G4 | %87
w: foe- de-|ris do- mi-|ni in|ju- * * * * bi-|lo, in ju- * *|* bi- lo.|Et Da-|vid, et|
 d12 d4 | f8 d4 f4- | f4 e2 d2 e4 f4 | d8 z8 | f6 f2 d4 f4- | f4 e2 d2 c4 d4- | d4 d4 B8 | A8 z8 | %95
w: Da- vid|cum can- to-|* * * * ri-|bus|ci- tha- ram per-|* * * * cu-|* ti- e-|bat,|
 z16 | z4 d4 c4 c4 | B8 A8 | z4 A4 B4 A4 | c12 c4 | d16- | d8 z8 | A8 d8 | c8 z8 | z8 A8 | d8 c8 | %106
w: |per- cu- ti-|e- bat|in do- mo|Do- mi-|ni,|_|et lau-|des,|et|lau- des|
 z4 d4 d4 d4 | f6 e2 d2 c2 B4- | B4 A4 z4 A4 | d8 c8 | z8 d8 | f4 d4 d8 | d16 |] %113
w: De- o ca-|ne- * * * *|* bat, et|lau- des|De-|o ca- ne-|bat.|
V:3
 x8 | x8 |[M:4/2][K:treble-8] z16 | G16 | G8 B8- | B8 A8- | A8 z4 A4- | A2 A2 A4 c4 A4 | G8 F8- | %9
w: |||De-|can- ta-|* bat|_ po-|* pu- lus Is- ra-|el, De-|
 F8 D8 | G8 F8 | z4 D6 D2 D4 | F4 D4 C8 | z16 | z8 z4 A4 | A4 A4 c6 B2 | A2 G2 A4 F4 D4- | %17
w: * can-|ta- bat|po- pu- lus|Is- ra- el||et|u- ni- ver- *|* * * sa mul-|
 D4 D4 F6 G2 | A2 B2 c8 c4 | d16 | d8 z8 | z16 | z16 | z8 B8 | c8 d4 d4 | c4 B4 A8 | z4 G4 A8 | %27
w: * ti- tu- *|* * * do|Ia-|cob|||ca-|ne- bat le-|gi- ti- me,|ca- ne-|
 B4 A6 G2 G4- | G2 ^FE F4 G6 G2 | D4 A4 B8- | B8 A8 | d8 G4 d4- | d4 c2 B2 c4 d4 | B8 c6 c2 | %34
w: bat le- * *|* * * * gi- ti-|me et Da-|* vid|cum can- to-|* * * * ri-|bus ci- tha-|
 B4 A4 B4 A4 | F6 G2 A2 F2 B4 | A8 z8 | z8 A6 A2 | F4 G4 A4 G2 F2 | E2 F2 G8 F4 | G8 D4 D4 | F16 | %42
w: ram per- cu- ti-|e- * * * *|bat,|ci- tha-|ram per- cu- * *|* * * ti-|e- bat in|do-|
 G16 | B12 B4 | A8 z4 F4 | B8 A4 A4 | A4 B4 G8 | F8 z8 | z8 F8 | B8 A8- | A4 D4 F4 G4 | %51
w: mo|Do- mi-|ni, et|lau- des De-|o ca- ne-|bat,|et|lau- des|_ De- o ca-|
 A2 F2 B4 A8 | G16 || G8 G4 G4 | B6 A2 G2 F2 G4 | F4 D4 F8- | F4 F4 A8- | A4 A4 c8 | B8 z8 | %59
w: ne- * * *|bat.|San- cti- fi-|ca- * * * *|ti sunt er-|* go sa-|* cer- do-|tes,|
 z4 G4 B8 | c8 d4 d4- | d4 c4 B2 A2 G2 F2 | G8 F8 | z4 B8 A4 | B6 A2 B2 G2 c4 | F4 A4 A4 c4- | %66
w: sa- cer-|do- tes et|_ le- vi- * * *|* tae,|sa- cer-|do- * * * *|tes et le- vi-|
 c2 B2 A2 G2 A4 G4 | F4 A4 c8 | F16- | F8 z4 B4- | B4 G4 G4 A4- | A4 F8 G4- | G4 F8 E4 | F6 E2 D8 | %74
w: * * * * * tae,|et le- vi-|tae|_ et|_ u- ni- ver-|* sus Is-|* * ra-|el _ _|
 z16 | z8 G8 | A8 B8 | G4 c8 B4 | c4 d4 B4 c4- | c4 B4 A8 | z16 | z4 F4 G2 F2 G2 A2 | B4 B4 F8 | %83
w: |de-|du- ce-|bat ar- cam|foe- de- ris do-|* mi- ni||in ju- * * *|* bi- lo,|
 z8 z4 F4 | A2 G2 A2 B2 c4 c4 | G8 z4 A4 | B16- | B8 A8 | d8 G4 d4- | d4 c2 B2 c4 d4 | B8 c6 c2 | %91
w: in|ju- * * * * bi-|lo. Et|Da-|* vid|cum can- to-|* * * * ri-|bus ci- tha-|
 B4 A4 B4 A4 | F6 G2 A2 F2 B4 | A8 z8 | z8 A6 A2 | F4 G4 A4 G2 F2 | E2 F2 G8 F4 | G8 D4 D4 | F16 | %99
w: ram per- cu- ti-|e- * * * *|bat,|ci- tha-|ram per- cu- * *|* * * ti-|e- bat in|do-|
 G16 | B12 B4 | A16 | z16 | A8 F6 G2 | A2 B2 c4 F4 F4 | B8 A4 A4 | A4 B4 G8 | F8 z8 | z8 F8 | %109
w: mo|Do- mi-|ni,||et lau- *|* * * des, et|lau- des De-|o ca- ne-|bat,|et|
 B8 A8- | A4 D4 F4 G4 | A2 F2 B4 A8 | G16 |] %113
w: lau- des|_ De- o ca-|ne- * * *|bat.|
V:4
 x8 | x8 |[M:4/2] z16 | z16 | z16 | D,16 | D,8 F,8- | F,8 C,8- | C,8 z4 D,4- | %9
w: |||||De-|can- ta-|* bat|_ po-|
 D,2 D,2 D,4 F,4 D,4 | C,8 z8 | z8 z4 F,4- | F,2 G,2 A,2 F,2 G,6 G,2 | F,4 F,8 E,4 | F,16- | %15
w: * pu- lus Is- ra-|el,|po-|* * * * * pu-|lus Is- ra-|el|
 F,8 z8 | z16 | z16 | z16 | z4 G,4 G,4 G,4 | B,6 A,2 G,2 F,2 G,4 | D,4 F,6 E,2 F,2 G,2 | %22
w: _||||et u- ni-|ver- * * * *|sa mul- * * *|
 A,4 F,4 G,4 A,4 | B,6 A,2 G,8 | F,8 z8 | z8 D,8 | E,8 F,8 | D,8 C,4 B,,4 | A,,8 z8 | z4 D,4 G,8- | %30
w: * ti- tu- do|Ia- * *|cob|ca-|ne- bat|le- gi- ti-|me|et Da-|
 G,8 D,8 | z16 | z8 z4 D,4 | G,8 F,8 | D,8 G,,4 D,4- | D,4 C,2 B,,2 A,,4 G,,4 | D,8 z8 | %37
w: * vid,||et|Da- vid|cum can- to-|* * * * ri-|bus|
 D,6 D,2 C,4 D,4- | D,4 C,2 B,,2 A,,4 C,4- | C,4 B,,4 A,,8 | G,,8 z8 | D,16 | C,16 | %43
w: ci- tha- ram per-|* * * * cu-|* ti- e-|bat|in|do-|
 B,,8 G,,6 G,,2 | D,16- | D,8 z8 | z16 | z4 D,4 G,8 | F,8 z4 D,4 | D,4 D,4 F,6 E,2 | %50
w: mo Do- mi-|ni,|_||et lau-|des De-|o ca- ne- *|
 D,2 C,2 B,,8 A,,2 G,,2 | D,16 | G,,16 || z16 | z16 | z8 z4 D,4 | D,4 D,4 F,6 E,2 | %57
w: ||bat.|||San-|cti- fi- ca- *|
 D,2 C,2 D,4 C,8 | G,,4 G,4 G,4 G,4 | B,6 A,2 G,2 F,2 G,4 | F,8 D,4 B,,2 C,2 | D,2 E,2 F,4 B,,8 | %62
w: * * * ti|sunt, San- cti- fi-|ca- * * * *|ti sunt er- *|* * * go|
 z4 B,8 A,4 | B,8 F,8 | z16 | z4 F,8 E,4 | F,6 E,2 F,2 D,2 _E,4 | D,8 z8 | z8 D,8 | B,,12 B,,4 | %70
w: sa- cer-|do- tes||et le-|vi- * * * *|tae|et|u- ni-|
 _E,8 C,8 | D,6 C,2 B,,4 G,,4 | D,8 z8 | z8 z4 F,4 | G,8 A,8 | F,4 B,6 A,2 G,4- | %76
w: ver- sus|Is- * * ra-|el|de-|du- ce-|bat ar- * *|
 G,2 ^F,E, F,4 G,8 | C,6 C,2 G,,4 G,4- | G,4 F,4 G,8- | G,4 G,4 D,8 | C,4 B,,2 A,,2 B,,6 A,,G,, | %81
w: * * * * cam|foe- de- ris, ar-|* cam foe-|* de- ris|do- * * * * *|
 D,4 D,4 C,6 B,,A,, | G,,8 z8 | z4 C,4 D,2 C,2 D,2 E,2 | F,4 F,4 C,8 | z8 z4 D,4 | G,16- | %87
w: * mi- ni _ _|_|in ju- * * *|* bi- lo.|Et|Da-|
 G,8 D,8 | z16 | z8 z4 D,4 | G,8 F,8 | D,8 G,,4 D,4- | D,4 C,2 B,,2 A,,4 G,,4 | D,8 z8 | %94
w: * vid,||et|Da- vid|cum can- to-|* * * * ri-|bus|
 D,6 D,2 C,4 D,4- | D,4 C,2 B,,2 A,,4 C,4- | C,4 B,,4 A,,8 | G,,8 z8 | D,16 | C,16 | %100
w: ci- tha- ram per-|* * * * cu-|* ti- e-|bat|in|do-|
 B,,8 G,,6 G,,2 | D,16- | D,8 z8 | z4 A,,4 D,8 | C,8 z4 D,4 | D,4 D,4 F,6 E,2 | D,2 C,2 B,,8 G,,4 | %107
w: mo Do- mi-|ni,|_|et lau-|des De-|o ca- ne- *|* * * bat,|
 z4 D,4 G,8 | F,8 z4 D,4 | D,4 D,4 F,6 E,2 | D,2 C,2 B,,8 A,,2 G,,2 | D,16 | G,,16 |] %113
w: et lau-|des De-|o ca- ne- *|||bat.|

